assets/img/9-get_started/get-started__clouds.svg

<svg width="1387" height="409" fill="none" xmlns="http://www.w3.org/2000/svg"><g filter="url(#filter0_d)"><path d="M1119.71 160c-37.83 0-68.5 31.274-68.5 69.853h136.99c0-38.579-30.67-69.853-68.49-69.853z" fill="#6E8DFF"/></g><g filter="url(#filter1_d)"><path d="M1176.1 193.48c-83.39 0-150.99 68.286-150.99 152.52h301.98c0-84.234-67.6-152.52-150.99-152.52z" fill="#6C8BFF"/></g><g filter="url(#filter2_d)"><path d="M999.018 219.52c-45.297 0-82.018 36.641-82.018 81.84h164.04c0-45.199-36.73-81.84-82.022-81.84z" fill="#567AFF"/></g><g filter="url(#filter3_d)"><path d="M1284.22 241.84c-31.92 0-57.79 26.648-57.79 59.52H1342c0-32.872-25.87-59.52-57.78-59.52z" fill="#567AFF"/></g><g filter="url(#filter4_d)"><path d="M122.495 40C84.666 40 54 71.274 54 109.853h136.989c0-38.579-30.666-69.853-68.494-69.853z" fill="#6E8DFF"/></g><g filter="url(#filter5_d)"><path d="M190.5 58c-43.354 0-78.5 35.37-78.5 79h157c0-43.63-35.146-79-78.5-79z" fill="#6C8BFF"/></g><g filter="url(#filter6_d)"><path d="M222.5 289c-38.384 0-69.5 31.34-69.5 70h139c0-38.66-31.116-70-69.5-70z" fill="#567AFF"/></g><g filter="url(#filter7_d)"><path d="M127.5 294c-14.083 0-25.5 11.193-25.5 25h51c0-13.807-11.417-25-25.5-25z" fill="#567AFF"/></g><g filter="url(#filter8_d)"><path d="M102.785 115C70.871 115 45 141.648 45 174.52h115.57c0-32.872-25.871-59.52-57.785-59.52z" fill="#567AFF"/></g><defs><filter id="filter0_d" x="1006.21" y="120" width="226.989" height="159.853" filterUnits="userSpaceOnUse" color-interpolation-filters="sRGB"><feFlood flood-opacity="0" result="BackgroundImageFix"/><feColorMatrix in="SourceAlpha" values="0 0 0 0 0 0 0 0 0 0 0 0 0 0 0 0 0 0 127 0"/><feOffset dy="5"/><feGaussianBlur stdDeviation="22.5"/><feColorMatrix values="0 0 0 0 0.593724 0 0 0 0 0.684469 0 0 0 0 0.888646 0 0 0 0.1 0"/><feBlend in2="BackgroundImageFix" result="effect1_dropShadow"/><feBlend in="SourceGraphic" in2="effect1_dropShadow" result="shape"/></filter><filter id="filter1_d" x="980.114" y="153.48" width="391.974" height="242.52" filterUnits="userSpaceOnUse" color-interpolation-filters="sRGB"><feFlood flood-opacity="0" result="BackgroundImageFix"/><feColorMatrix in="SourceAlpha" values="0 0 0 0 0 0 0 0 0 0 0 0 0 0 0 0 0 0 127 0"/><feOffset dy="5"/><feGaussianBlur stdDeviation="22.5"/><feColorMatrix values="0 0 0 0 0.593724 0 0 0 0 0.684469 0 0 0 0 0.888646 0 0 0 0.1 0"/><feBlend in2="BackgroundImageFix" result="effect1_dropShadow"/><feBlend in="SourceGraphic" in2="effect1_dropShadow" result="shape"/></filter><filter id="filter2_d" x="872" y="179.52" width="254.035" height="171.84" filterUnits="userSpaceOnUse" color-interpolation-filters="sRGB"><feFlood flood-opacity="0" result="BackgroundImageFix"/><feColorMatrix in="SourceAlpha" values="0 0 0 0 0 0 0 0 0 0 0 0 0 0 0 0 0 0 127 0"/><feOffset dy="5"/><feGaussianBlur stdDeviation="22.5"/><feColorMatrix values="0 0 0 0 0.593724 0 0 0 0 0.684469 0 0 0 0 0.888646 0 0 0 0.1 0"/><feBlend in2="BackgroundImageFix" result="effect1_dropShadow"/><feBlend in="SourceGraphic" in2="effect1_dropShadow" result="shape"/></filter><filter id="filter3_d" x="1181.43" y="201.84" width="205.57" height="149.52" filterUnits="userSpaceOnUse" color-interpolation-filters="sRGB"><feFlood flood-opacity="0" result="BackgroundImageFix"/><feColorMatrix in="SourceAlpha" values="0 0 0 0 0 0 0 0 0 0 0 0 0 0 0 0 0 0 127 0"/><feOffset dy="5"/><feGaussianBlur stdDeviation="22.5"/><feColorMatrix values="0 0 0 0 0.593724 0 0 0 0 0.684469 0 0 0 0 0.888646 0 0 0 0.1 0"/><feBlend in2="BackgroundImageFix" result="effect1_dropShadow"/><feBlend in="SourceGraphic" in2="effect1_dropShadow" result="shape"/></filter><filter id="filter4_d" x="9" y="0" width="226.989" height="159.853" filterUnits="userSpaceOnUse" color-interpolation-filters="sRGB"><feFlood flood-opacity="0" result="BackgroundImageFix"/><feColorMatrix in="SourceAlpha" values="0 0 0 0 0 0 0 0 0 0 0 0 0 0 0 0 0 0 127 0"/><feOffset dy="5"/><feGaussianBlur stdDeviation="22.5"/><feColorMatrix values="0 0 0 0 0.593724 0 0 0 0 0.684469 0 0 0 0 0.888646 0 0 0 0.1 0"/><feBlend in2="BackgroundImageFix" result="effect1_dropShadow"/><feBlend in="SourceGraphic" in2="effect1_dropShadow" result="shape"/></filter><filter id="filter5_d" x="67" y="18" width="247" height="169" filterUnits="userSpaceOnUse" color-interpolation-filters="sRGB"><feFlood flood-opacity="0" result="BackgroundImageFix"/><feColorMatrix in="SourceAlpha" values="0 0 0 0 0 0 0 0 0 0 0 0 0 0 0 0 0 0 127 0"/><feOffset dy="5"/><feGaussianBlur stdDeviation="22.5"/><feColorMatrix values="0 0 0 0 0.593724 0 0 0 0 0.684469 0 0 0 0 0.888646 0 0 0 0.1 0"/><feBlend in2="BackgroundImageFix" result="effect1_dropShadow"/><feBlend in="SourceGraphic" in2="effect1_dropShadow" result="shape"/></filter><filter id="filter6_d" x="108" y="249" width="229" height="160" filterUnits="userSpaceOnUse" color-interpolation-filters="sRGB"><feFlood flood-opacity="0" result="BackgroundImageFix"/><feColorMatrix in="SourceAlpha" values="0 0 0 0 0 0 0 0 0 0 0 0 0 0 0 0 0 0 127 0"/><feOffset dy="5"/><feGaussianBlur stdDeviation="22.5"/><feColorMatrix values="0 0 0 0 0.593724 0 0 0 0 0.684469 0 0 0 0 0.888646 0 0 0 0.1 0"/><feBlend in2="BackgroundImageFix" result="effect1_dropShadow"/><feBlend in="SourceGraphic" in2="effect1_dropShadow" result="shape"/></filter><filter id="filter7_d" x="57" y="254" width="141" height="115" filterUnits="userSpaceOnUse" color-interpolation-filters="sRGB"><feFlood flood-opacity="0" result="BackgroundImageFix"/><feColorMatrix in="SourceAlpha" values="0 0 0 0 0 0 0 0 0 0 0 0 0 0 0 0 0 0 127 0"/><feOffset dy="5"/><feGaussianBlur stdDeviation="22.5"/><feColorMatrix values="0 0 0 0 0.593724 0 0 0 0 0.684469 0 0 0 0 0.888646 0 0 0 0.1 0"/><feBlend in2="BackgroundImageFix" result="effect1_dropShadow"/><feBlend in="SourceGraphic" in2="effect1_dropShadow" result="shape"/></filter><filter id="filter8_d" x="0" y="75" width="205.57" height="149.52" filterUnits="userSpaceOnUse" color-interpolation-filters="sRGB"><feFlood flood-opacity="0" result="BackgroundImageFix"/><feColorMatrix in="SourceAlpha" values="0 0 0 0 0 0 0 0 0 0 0 0 0 0 0 0 0 0 127 0"/><feOffset dy="5"/><feGaussianBlur stdDeviation="22.5"/><feColorMatrix values="0 0 0 0 0.593724 0 0 0 0 0.684469 0 0 0 0 0.888646 0 0 0 0.1 0"/><feBlend in2="BackgroundImageFix" result="effect1_dropShadow"/><feBlend in="SourceGraphic" in2="effect1_dropShadow" result="shape"/></filter></defs></svg>

<svg width="1387" height="409" viewBox="0 0 1387 409" fill="none" xmlns="http://www.w3.org/2000/svg">
<g filter="url(#filter0_d)">
<path d="M1119.71 160C1081.88 160 1051.21 191.274 1051.21 229.853H1188.2C1188.2 191.274 1157.53 160 1119.71 160Z" fill="#6E8DFF"/>
</g>
<g filter="url(#filter1_d)">
<path d="M1176.1 193.48C1092.71 193.48 1025.11 261.766 1025.11 346H1327.09C1327.09 261.766 1259.49 193.48 1176.1 193.48Z" fill="#6C8BFF"/>
</g>
<g filter="url(#filter2_d)">
<path d="M999.018 219.52C953.721 219.52 917 256.161 917 301.36H1081.04C1081.04 256.161 1044.31 219.52 999.018 219.52Z" fill="#567AFF"/>
</g>
<g filter="url(#filter3_d)">
<path d="M1284.22 241.84C1252.3 241.84 1226.43 268.488 1226.43 301.36H1342C1342 268.488 1316.13 241.84 1284.22 241.84Z" fill="#567AFF"/>
</g>
<g filter="url(#filter4_d)">
<path d="M122.495 40C84.6661 40 54 71.2744 54 109.853H190.989C190.989 71.2744 160.323 40 122.495 40Z" fill="#6E8DFF"/>
</g>
<g filter="url(#filter5_d)">
<path d="M190.5 58C147.146 58 112 93.3695 112 137H269C269 93.3695 233.854 58 190.5 58Z" fill="#6C8BFF"/>
</g>
<g filter="url(#filter6_d)">
<path d="M222.5 289C184.116 289 153 320.34 153 359H292C292 320.34 260.884 289 222.5 289Z" fill="#567AFF"/>
</g>
<g filter="url(#filter7_d)">
<path d="M127.5 294C113.417 294 102 305.193 102 319H153C153 305.193 141.583 294 127.5 294Z" fill="#567AFF"/>
</g>
<g filter="url(#filter8_d)">
<path d="M102.785 115C70.8713 115 45 141.648 45 174.52H160.57C160.57 141.648 134.699 115 102.785 115Z" fill="#567AFF"/>
</g>
<defs>
<filter id="filter0_d" x="1006.21" y="120" width="226.989" height="159.853" filterUnits="userSpaceOnUse" color-interpolation-filters="sRGB">
<feFlood flood-opacity="0" result="BackgroundImageFix"/>
<feColorMatrix in="SourceAlpha" type="matrix" values="0 0 0 0 0 0 0 0 0 0 0 0 0 0 0 0 0 0 127 0"/>
<feOffset dy="5"/>
<feGaussianBlur stdDeviation="22.5"/>
<feColorMatrix type="matrix" values="0 0 0 0 0.593724 0 0 0 0 0.684469 0 0 0 0 0.888646 0 0 0 0.1 0"/>
<feBlend mode="normal" in2="BackgroundImageFix" result="effect1_dropShadow"/>
<feBlend mode="normal" in="SourceGraphic" in2="effect1_dropShadow" result="shape"/>
</filter>
<filter id="filter1_d" x="980.114" y="153.48" width="391.974" height="242.52" filterUnits="userSpaceOnUse" color-interpolation-filters="sRGB">
<feFlood flood-opacity="0" result="BackgroundImageFix"/>
<feColorMatrix in="SourceAlpha" type="matrix" values="0 0 0 0 0 0 0 0 0 0 0 0 0 0 0 0 0 0 127 0"/>
<feOffset dy="5"/>
<feGaussianBlur stdDeviation="22.5"/>
<feColorMatrix type="matrix" values="0 0 0 0 0.593724 0 0 0 0 0.684469 0 0 0 0 0.888646 0 0 0 0.1 0"/>
<feBlend mode="normal" in2="BackgroundImageFix" result="effect1_dropShadow"/>
<feBlend mode="normal" in="SourceGraphic" in2="effect1_dropShadow" result="shape"/>
</filter>
<filter id="filter2_d" x="872" y="179.52" width="254.035" height="171.84" filterUnits="userSpaceOnUse" color-interpolation-filters="sRGB">
<feFlood flood-opacity="0" result="BackgroundImageFix"/>
<feColorMatrix in="SourceAlpha" type="matrix" values="0 0 0 0 0 0 0 0 0 0 0 0 0 0 0 0 0 0 127 0"/>
<feOffset dy="5"/>
<feGaussianBlur stdDeviation="22.5"/>
<feColorMatrix type="matrix" values="0 0 0 0 0.593724 0 0 0 0 0.684469 0 0 0 0 0.888646 0 0 0 0.1 0"/>
<feBlend mode="normal" in2="BackgroundImageFix" result="effect1_dropShadow"/>
<feBlend mode="normal" in="SourceGraphic" in2="effect1_dropShadow" result="shape"/>
</filter>
<filter id="filter3_d" x="1181.43" y="201.84" width="205.57" height="149.52" filterUnits="userSpaceOnUse" color-interpolation-filters="sRGB">
<feFlood flood-opacity="0" result="BackgroundImageFix"/>
<feColorMatrix in="SourceAlpha" type="matrix" values="0 0 0 0 0 0 0 0 0 0 0 0 0 0 0 0 0 0 127 0"/>
<feOffset dy="5"/>
<feGaussianBlur stdDeviation="22.5"/>
<feColorMatrix type="matrix" values="0 0 0 0 0.593724 0 0 0 0 0.684469 0 0 0 0 0.888646 0 0 0 0.1 0"/>
<feBlend mode="normal" in2="BackgroundImageFix" result="effect1_dropShadow"/>
<feBlend mode="normal" in="SourceGraphic" in2="effect1_dropShadow" result="shape"/>
</filter>
<filter id="filter4_d" x="9" y="0" width="226.989" height="159.853" filterUnits="userSpaceOnUse" color-interpolation-filters="sRGB">
<feFlood flood-opacity="0" result="BackgroundImageFix"/>
<feColorMatrix in="SourceAlpha" type="matrix" values="0 0 0 0 0 0 0 0 0 0 0 0 0 0 0 0 0 0 127 0"/>
<feOffset dy="5"/>
<feGaussianBlur stdDeviation="22.5"/>
<feColorMatrix type="matrix" values="0 0 0 0 0.593724 0 0 0 0 0.684469 0 0 0 0 0.888646 0 0 0 0.1 0"/>
<feBlend mode="normal" in2="BackgroundImageFix" result="effect1_dropShadow"/>
<feBlend mode="normal" in="SourceGraphic" in2="effect1_dropShadow" result="shape"/>
</filter>
<filter id="filter5_d" x="67" y="18" width="247" height="169" filterUnits="userSpaceOnUse" color-interpolation-filters="sRGB">
<feFlood flood-opacity="0" result="BackgroundImageFix"/>
<feColorMatrix in="SourceAlpha" type="matrix" values="0 0 0 0 0 0 0 0 0 0 0 0 0 0 0 0 0 0 127 0"/>
<feOffset dy="5"/>
<feGaussianBlur stdDeviation="22.5"/>
<feColorMatrix type="matrix" values="0 0 0 0 0.593724 0 0 0 0 0.684469 0 0 0 0 0.888646 0 0 0 0.1 0"/>
<feBlend mode="normal" in2="BackgroundImageFix" result="effect1_dropShadow"/>
<feBlend mode="normal" in="SourceGraphic" in2="effect1_dropShadow" result="shape"/>
</filter>
<filter id="filter6_d" x="108" y="249" width="229" height="160" filterUnits="userSpaceOnUse" color-interpolation-filters="sRGB">
<feFlood flood-opacity="0" result="BackgroundImageFix"/>
<feColorMatrix in="SourceAlpha" type="matrix" values="0 0 0 0 0 0 0 0 0 0 0 0 0 0 0 0 0 0 127 0"/>
<feOffset dy="5"/>
<feGaussianBlur stdDeviation="22.5"/>
<feColorMatrix type="matrix" values="0 0 0 0 0.593724 0 0 0 0 0.684469 0 0 0 0 0.888646 0 0 0 0.1 0"/>
<feBlend mode="normal" in2="BackgroundImageFix" result="effect1_dropShadow"/>
<feBlend mode="normal" in="SourceGraphic" in2="effect1_dropShadow" result="shape"/>
</filter>
<filter id="filter7_d" x="57" y="254" width="141" height="115" filterUnits="userSpaceOnUse" color-interpolation-filters="sRGB">
<feFlood flood-opacity="0" result="BackgroundImageFix"/>
<feColorMatrix in="SourceAlpha" type="matrix" values="0 0 0 0 0 0 0 0 0 0 0 0 0 0 0 0 0 0 127 0"/>
<feOffset dy="5"/>
<feGaussianBlur stdDeviation="22.5"/>
<feColorMatrix type="matrix" values="0 0 0 0 0.593724 0 0 0 0 0.684469 0 0 0 0 0.888646 0 0 0 0.1 0"/>
<feBlend mode="normal" in2="BackgroundImageFix" result="effect1_dropShadow"/>
<feBlend mode="normal" in="SourceGraphic" in2="effect1_dropShadow" result="shape"/>
</filter>
<filter id="filter8_d" x="0" y="75" width="205.57" height="149.52" filterUnits="userSpaceOnUse" color-interpolation-filters="sRGB">
<feFlood flood-opacity="0" result="BackgroundImageFix"/>
<feColorMatrix in="SourceAlpha" type="matrix" values="0 0 0 0 0 0 0 0 0 0 0 0 0 0 0 0 0 0 127 0"/>
<feOffset dy="5"/>
<feGaussianBlur stdDeviation="22.5"/>
<feColorMatrix type="matrix" values="0 0 0 0 0.593724 0 0 0 0 0.684469 0 0 0 0 0.888646 0 0 0 0.1 0"/>
<feBlend mode="normal" in2="BackgroundImageFix" result="effect1_dropShadow"/>
<feBlend mode="normal" in="SourceGraphic" in2="effect1_dropShadow" result="shape"/>
</filter>
</defs>
</svg>
